flaticon/household/washing-machine-1.svg

<svg xmlns="http://www.w3.org/2000/svg" width="32" height="32" viewBox="0 0 24 24">
    <path d="M 19.730469 0 L 4.269531 0 C 3.457031 0 2.800781 0.660156 2.800781 1.46875 L 2.800781 22.53125 C 2.800781 23.339844 3.457031 24 4.269531 24 L 19.730469 24 C 20.542969 24 21.199219 23.339844 21.199219 22.53125 L 21.199219 1.46875 C 21.199219 0.660156 20.542969 0 19.730469 0 Z M 19.730469 0.800781 C 20.101562 0.800781 20.398438 1.097656 20.398438 1.46875 L 20.398438 4.800781 L 15.199219 4.800781 L 15.199219 0.800781 Z M 14.398438 0.800781 L 14.398438 4.800781 L 9.601562 4.800781 L 9.601562 0.800781 Z M 3.601562 1.46875 C 3.601562 1.097656 3.898438 0.800781 4.269531 0.800781 L 8.800781 0.800781 L 8.800781 4.800781 L 3.601562 4.800781 Z M 20.398438 22.53125 C 20.398438 22.902344 20.101562 23.199219 19.730469 23.199219 L 4.269531 23.199219 C 3.898438 23.199219 3.601562 22.902344 3.601562 22.53125 L 3.601562 5.601562 L 20.398438 5.601562 Z M 20.398438 22.53125"/>
    <path d="M6.398438 1.199219C5.519531 1.199219 4.800781 1.917969 4.800781 2.800781 4.800781 3.683594 5.519531 4.398438 6.398438 4.398438 7.28125 4.398438 8 3.683594 8 2.800781 8 1.917969 7.28125 1.199219 6.398438 1.199219zM6.398438 3.601562C5.957031 3.601562 5.601562 3.242188 5.601562 2.800781 5.601562 2.359375 5.957031 2 6.398438 2 6.839844 2 7.199219 2.359375 7.199219 2.800781 7.199219 3.242188 6.839844 3.601562 6.398438 3.601562zM17.601562 4.398438C18.480469 4.398438 19.199219 3.683594 19.199219 2.800781 19.199219 1.917969 18.480469 1.199219 17.601562 1.199219 16.71875 1.199219 16 1.917969 16 2.800781 16 3.683594 16.71875 4.398438 17.601562 4.398438zM17.601562 2C18.042969 2 18.398438 2.359375 18.398438 2.800781 18.398438 3.242188 18.042969 3.601562 17.601562 3.601562 17.160156 3.601562 16.800781 3.242188 16.800781 2.800781 16.800781 2.359375 17.160156 2 17.601562 2zM4.800781 14.398438C4.800781 16.5625 5.761719 18.496094 7.273438 19.816406 7.3125 19.875 7.363281 19.925781 7.425781 19.957031 8.671875 20.984375 10.265625 21.601562 12 21.601562 15.96875 21.601562 19.199219 18.371094 19.199219 14.398438 19.199219 10.429688 15.96875 7.199219 12 7.199219 8.03125 7.199219 4.800781 10.429688 4.800781 14.398438zM18.398438 14.398438C18.398438 17.929688 15.527344 20.800781 12 20.800781 8.472656 20.800781 5.601562 17.929688 5.601562 14.398438 5.601562 10.871094 8.472656 8 12 8 15.527344 8 18.398438 10.871094 18.398438 14.398438zM18.398438 14.398438"/>
    <path d="M 6.398438 14.398438 C 6.398438 15.464844 6.703125 16.457031 7.222656 17.304688 C 7.242188 17.378906 7.28125 17.445312 7.339844 17.496094 C 7.484375 17.71875 7.652344 17.921875 7.824219 18.121094 L 7.816406 18.136719 L 8.054688 18.375 C 8.699219 19.011719 9.472656 19.476562 10.316406 19.742188 C 10.324219 19.742188 10.332031 19.746094 10.339844 19.75 C 10.492188 19.796875 10.644531 19.832031 10.800781 19.867188 C 10.828125 19.875 10.851562 19.882812 10.878906 19.886719 C 11.023438 19.917969 11.171875 19.9375 11.316406 19.953125 C 11.355469 19.960938 11.394531 19.96875 11.4375 19.972656 C 11.621094 19.988281 11.808594 20 12 20 C 12.109375 20 12.214844 19.988281 12.320312 19.984375 C 12.347656 19.988281 12.371094 20 12.398438 20 C 12.449219 20 12.492188 19.988281 12.535156 19.972656 C 15.371094 19.703125 17.601562 17.308594 17.601562 14.398438 C 17.601562 11.3125 15.089844 8.800781 12 8.800781 C 8.910156 8.800781 6.398438 11.3125 6.398438 14.398438 Z M 9.648438 17.382812 C 9.714844 17.511719 9.847656 17.601562 10 17.601562 C 10.222656 17.601562 10.398438 17.421875 10.398438 17.199219 C 10.398438 17.136719 10.382812 17.078125 10.355469 17.027344 C 10.75 16.882812 11.171875 16.800781 11.601562 16.800781 L 12.800781 16.800781 C 13.804688 16.800781 14.765625 16.53125 15.609375 16.039062 C 15.628906 16.242188 15.792969 16.398438 16 16.398438 C 16.222656 16.398438 16.398438 16.222656 16.398438 16 C 16.398438 15.847656 16.3125 15.71875 16.1875 15.652344 C 16.375 15.507812 16.558594 15.355469 16.730469 15.1875 C 16.726562 15.21875 16.722656 15.25 16.714844 15.28125 C 16.703125 15.34375 16.691406 15.40625 16.675781 15.46875 C 16.65625 15.554688 16.632812 15.640625 16.609375 15.726562 C 16.59375 15.785156 16.574219 15.847656 16.554688 15.90625 C 16.527344 15.992188 16.496094 16.074219 16.464844 16.152344 C 16.441406 16.210938 16.417969 16.269531 16.394531 16.324219 C 16.359375 16.40625 16.316406 16.488281 16.277344 16.566406 C 16.25 16.621094 16.226562 16.671875 16.195312 16.722656 C 16.148438 16.808594 16.097656 16.890625 16.046875 16.972656 C 16.019531 17.015625 15.992188 17.058594 15.964844 17.097656 C 15.886719 17.214844 15.804688 17.324219 15.714844 17.433594 C 15.710938 17.4375 15.707031 17.445312 15.703125 17.453125 C 15.609375 17.5625 15.511719 17.671875 15.40625 17.777344 C 15.375 17.808594 15.335938 17.84375 15.300781 17.875 C 15.230469 17.941406 15.160156 18.011719 15.085938 18.074219 C 15.039062 18.109375 14.992188 18.144531 14.949219 18.179688 C 14.878906 18.234375 14.808594 18.289062 14.734375 18.339844 C 14.683594 18.375 14.632812 18.40625 14.582031 18.441406 C 14.507812 18.488281 14.433594 18.53125 14.359375 18.574219 C 14.304688 18.605469 14.25 18.636719 14.195312 18.664062 C 14.117188 18.703125 14.039062 18.742188 13.960938 18.777344 C 13.902344 18.800781 13.847656 18.828125 13.789062 18.851562 C 13.707031 18.882812 13.625 18.914062 13.542969 18.941406 C 13.480469 18.960938 13.421875 18.980469 13.363281 19 C 13.277344 19.027344 13.1875 19.046875 13.097656 19.066406 C 13.039062 19.082031 12.980469 19.097656 12.921875 19.109375 C 12.824219 19.128906 12.722656 19.140625 12.621094 19.15625 C 12.570312 19.160156 12.519531 19.171875 12.46875 19.175781 C 12.3125 19.191406 12.15625 19.199219 12 19.199219 C 11.84375 19.199219 11.6875 19.191406 11.535156 19.175781 C 11.492188 19.171875 11.449219 19.164062 11.402344 19.160156 C 11.292969 19.144531 11.183594 19.128906 11.074219 19.109375 C 11.03125 19.101562 10.984375 19.089844 10.941406 19.078125 C 10.835938 19.054688 10.730469 19.027344 10.625 18.996094 C 10.585938 18.984375 10.542969 18.972656 10.503906 18.957031 C 10.398438 18.921875 10.289062 18.886719 10.1875 18.84375 C 10.152344 18.828125 10.117188 18.8125 10.085938 18.800781 C 9.976562 18.753906 9.871094 18.699219 9.765625 18.644531 C 9.738281 18.628906 9.710938 18.617188 9.683594 18.601562 C 9.574219 18.539062 9.46875 18.476562 9.367188 18.410156 C 9.34375 18.394531 9.320312 18.378906 9.296875 18.363281 C 9.253906 18.335938 9.214844 18.300781 9.171875 18.273438 C 9.128906 18.148438 9.03125 18.054688 8.902344 18.019531 C 9.125 17.773438 9.375 17.558594 9.648438 17.382812 Z M 16.777344 13.988281 C 16.703125 14.03125 16.636719 14.082031 16.578125 14.152344 C 15.664062 15.328125 14.285156 16 12.800781 16 L 11.601562 16 C 10.34375 16 9.148438 16.542969 8.320312 17.476562 C 7.621094 16.640625 7.199219 15.570312 7.199219 14.398438 C 7.199219 11.753906 9.351562 9.601562 12 9.601562 C 14.507812 9.601562 16.570312 11.535156 16.777344 13.988281 Z M 16.777344 13.988281"/>
    <path d="M8.414062 12.621094C8.316406 12.820312 8.398438 13.058594 8.597656 13.160156 8.652344 13.1875 8.714844 13.199219 8.773438 13.199219 8.921875 13.199219 9.0625 13.117188 9.132812 12.976562 9.675781 11.882812 10.777344 11.199219 12 11.199219 12.222656 11.199219 12.398438 11.019531 12.398438 10.800781 12.398438 10.578125 12.222656 10.398438 12 10.398438 10.46875 10.398438 9.097656 11.25 8.414062 12.621094zM8.800781 14C8.800781 14.222656 8.621094 14.398438 8.398438 14.398438 8.179688 14.398438 8 14.222656 8 14 8 13.777344 8.179688 13.601562 8.398438 13.601562 8.621094 13.601562 8.800781 13.777344 8.800781 14zM11.601562 18.398438C11.601562 18.621094 11.421875 18.800781 11.199219 18.800781 10.980469 18.800781 10.800781 18.621094 10.800781 18.398438 10.800781 18.179688 10.980469 18 11.199219 18 11.421875 18 11.601562 18.179688 11.601562 18.398438zM12.800781 17.199219C12.800781 17.421875 12.621094 17.601562 12.398438 17.601562 12.179688 17.601562 12 17.421875 12 17.199219 12 16.980469 12.179688 16.800781 12.398438 16.800781 12.621094 16.800781 12.800781 16.980469 12.800781 17.199219zM15.199219 17.199219C15.199219 17.421875 15.019531 17.601562 14.800781 17.601562 14.578125 17.601562 14.398438 17.421875 14.398438 17.199219 14.398438 16.980469 14.578125 16.800781 14.800781 16.800781 15.019531 16.800781 15.199219 16.980469 15.199219 17.199219zM14 18.398438C14 18.621094 13.820312 18.800781 13.601562 18.800781 13.378906 18.800781 13.199219 18.621094 13.199219 18.398438 13.199219 18.179688 13.378906 18 13.601562 18 13.820312 18 14 18.179688 14 18.398438zM14 18.398438"/>
</svg>

<svg xmlns="http://www.w3.org/2000/svg" width="32" height="32" viewBox="0 0 24 24">
    <path d="M19.73 0H4.27A1.47 1.47 0 0 0 2.8 1.469V22.53A1.47 1.47 0 0 0 4.27 24h15.46a1.47 1.47 0 0 0 1.47-1.469V1.47A1.47 1.47 0 0 0 19.73 0zm0 .8c.372 0 .668.298.668.669V4.8H15.2v-4zm-5.332 0v4H9.602v-4zM3.602 1.47c0-.371.296-.668.668-.668H8.8v4H3.603zM20.398 22.53a.665.665 0 0 1-.668.668H4.27a.665.665 0 0 1-.668-.668V5.601h16.796zm0 0"/>
    <path d="M6.398 1.2A1.6 1.6 0 1 0 8 2.801c0-.884-.719-1.603-1.602-1.603zm0 2.402a.799.799 0 0 1-.796-.801.799.799 0 1 1 1.597 0c0 .441-.36.8-.8.8zm0 0M17.602 4.398a1.6 1.6 0 1 0-.004-3.199 1.6 1.6 0 0 0 .004 3.2zm0-2.398c.441 0 .796.36.796.8a.799.799 0 1 1-1.597 0c0-.44.36-.8.8-.8zm0 0M4.8 14.398c0 2.165.962 4.098 2.473 5.418.04.059.09.11.153.141A7.168 7.168 0 0 0 12 21.602c3.969 0 7.2-3.23 7.2-7.204C19.2 10.43 15.968 7.2 12 7.2c-3.969 0-7.2 3.23-7.2 7.2zm13.598 0c0 3.532-2.87 6.403-6.398 6.403-3.527 0-6.398-2.871-6.398-6.403A6.407 6.407 0 0 1 12 8a6.407 6.407 0 0 1 6.398 6.398zm0 0"/>
    <path d="M6.398 14.398a5.54 5.54 0 0 0 .825 2.907c.02.074.058.14.117.191a5.8 5.8 0 0 0 .484.625l-.008.016.239.238a5.614 5.614 0 0 0 2.261 1.367 6.123 6.123 0 0 0 .484.125c.028.008.052.016.079.02.144.031.293.05.437.066.04.008.079.016.121.02.184.015.372.027.563.027.11 0 .215-.012.32-.016.028.004.051.016.078.016.051 0 .094-.012.137-.027a5.608 5.608 0 0 0 5.067-5.575A5.606 5.606 0 0 0 12 8.801a5.606 5.606 0 0 0-5.602 5.597zm3.25 2.985c.067.129.2.219.352.219a.398.398 0 0 0 .355-.575 3.629 3.629 0 0 1 1.247-.226H12.8c1.004 0 1.965-.27 2.808-.762a.395.395 0 1 0 .578-.387c.188-.144.372-.297.543-.465-.003.032-.007.063-.015.094-.012.063-.024.125-.04.188-.019.086-.042.172-.066.258a3.604 3.604 0 0 1-.145.426c-.023.058-.046.117-.07.171-.035.082-.078.164-.117.242-.027.055-.05.106-.082.157-.047.086-.097.168-.148.25a4.158 4.158 0 0 1-.332.46.085.085 0 0 0-.012.02c-.094.11-.191.219-.297.324-.031.032-.07.067-.105.098-.07.066-.14.137-.215.2-.047.034-.094.07-.137.105-.07.054-.14.11-.215.16-.05.035-.101.066-.152.101a6.68 6.68 0 0 1-.387.223c-.078.04-.156.078-.234.113-.059.024-.113.051-.172.075a6.236 6.236 0 0 1-.426.148c-.086.027-.175.047-.265.066-.059.016-.118.032-.176.043-.098.02-.2.032-.3.047-.052.004-.102.016-.153.02a4.708 4.708 0 0 1-.934 0c-.043-.004-.086-.012-.133-.016-.109-.015-.218-.031-.328-.05a1.633 1.633 0 0 1-.133-.032 4.71 4.71 0 0 1-.316-.082c-.04-.012-.082-.023-.121-.039-.106-.035-.215-.07-.316-.113-.036-.016-.07-.032-.102-.043a4.849 4.849 0 0 1-.32-.156c-.028-.016-.055-.028-.082-.043a6.172 6.172 0 0 1-.317-.192l-.07-.047c-.043-.027-.082-.062-.125-.09a.39.39 0 0 0-.27-.253c.223-.247.473-.461.746-.637zm7.13-3.395a.72.72 0 0 0-.2.164A4.755 4.755 0 0 1 12.801 16h-1.2a4.392 4.392 0 0 0-3.28 1.477 4.777 4.777 0 0 1-1.122-3.079A4.804 4.804 0 0 1 12 9.602a4.8 4.8 0 0 1 4.777 4.386zm0 0"/>
    <path d="M8.414 12.621a.404.404 0 0 0 .184.54c.054.027.117.038.175.038a.4.4 0 0 0 .36-.222A3.187 3.187 0 0 1 12 11.199c.223 0 .398-.18.398-.398a.398.398 0 0 0-.398-.403 3.983 3.983 0 0 0-3.586 2.223zm0 0M8.8 14c0 .223-.179.398-.402.398a.398.398 0 1 1 0-.796c.223 0 .403.175.403.398zm0 0M11.602 18.398a.401.401 0 1 1 0 0zm0 0M12.8 17.2a.401.401 0 1 1 0 0zm0 0M15.2 17.2a.401.401 0 1 1-.803.002.401.401 0 0 1 .802-.003zm0 0M14 18.398a.401.401 0 1 1-.802.003.401.401 0 0 1 .802-.003zm0 0"/>
</svg>
